X: 1689
T: Segâh Peşrev
C: Nâyî Osman Dede
O: Turkey
F: http://compmusic.upf.edu/node/140
N: segah--pesrev--devrikebir----nayi_osman_dede
N: makam= segah
N: form= pesrev
N: usul= devrikebir = 28/4
M: 28/4
L: 1/16
K: C _1/4B _1/4e ^f 
Q: 1/4=78
%%MIDI tuningsystem comma53
B8 c4 d4  | B6c2 B4 c2d2  | c4 B4 A8  | \
w:  1. HANE  |   |   | 
B4 c4 B4 A4  | B2c2 B4 c2d2 c4  | 
w:   |   | 
d12 d2d2  | d4 d4 z4 d4  | B8 c4 d4  | B4 c4 B4 B4  | \
w:   |   |   |   | 
d2d2 d4 d8  | d6e2 d4 c4  | 
w:   |   | 
c4 d4 c4 B4  | G2A2 B2c2 B4 c4  | B4 A4 G4 G4  | \
w:   |   |   | 
B8 c4 d4  | B6c2 B4 c2d2  | 
w:   |   | 
c4 B4 A8  | B4 c4 B4 A4  | B2c2 B4 c2d2 c4  | \
w:   |   |   | 
d12 d2d2  | d4 d4 z4 d4  | c2d2 c4 d8  | 
w:   |   |   | 
e8 e4 f4  | d4 e4 c4 d4  | B8 c4 B4  | d4 c4 c3B ^A2B2  | \
w:   |   |   |   | 
^A4 B8 d4  | B4 c4 d4 e4  | 
w:   |   | 
B8 c4 d4  | B6c2 B4 c2d2  | c4 B4 A8  | \
w:  TESLİM  |   |   | 
B4 c4 B4 A4  | B2c2 B4 c2d2 c4  | 
w:   |   | 
d12 d2d2  | d4 d4 z4 d4  | d8 d4 d4  | d8 d4 z4  | \
w:   |   |   |   | 
f4 g4 g8  | d2e2 f2g2 f4 g4  | 
w:   |   | 
f4 g4 e4 f4  | d12 =f4  | e4 d4 c4 B4  | \
w:   |   |   | 
A8 B8  | c4 d4 c4 B4  | d2d2 d4 d8  | d4 e8 =f4  | 
w:   |   |   |   | 
e4 d4 c4 B4  | G2A2 B2c2 B4 c4  | B4 A4 G4 G4  | \
w:   |   |   | 
c2d2 c4 d8  | e8 e4 f4  | 
w:   |   | 
d4 e4 c4 d4  | d8 c4 B4  | d4 c4 c3B ^A2B2  | \
w:   |   |   | 
^A4 B8 cBc2  | B12 z4  | |


